X:
T:Svingedans
T:(FMK M 143a bild 11 )
T:efter N. A. Persson
O:S:t Olof, Skåne
S:Svenska Låtar Skåne
B:Svenska Låtar Skåne
Z:Åke Persson, 2012-03-23
R:Svingedans
M:3/4
L:1/8
Q:1/4=108
%%printtempo 0
%%MIDI ratio 2 1
K:G
|: G2 B2 A(B/A/) | G2 Bd g2 | f2 ag ef | g2 bg d2 |
   G2 B2 ((3ABA) | G2 Bd g2 | f2 ad ef | g2 g2 z2 :|
|: d2 dcBd | g2 gf e2 | a2 ag fa | d'2 d'f g2 |
   d2 dc Bd | g2 gf e2 | a2 ad ef | g2 g2 z2 :|

